X:0
T:Dvmnonia
C:Tim Pillinger
M:2/2
K:Em
L:1/8
%%lineskipfac .80
%%text version: 2025-02-01
%%text Concert Pitch instruments
%%text Verse/A
%%transpose -2
A>B A>z  A>B A>z | A>B c>B c<d e2 | \
d>c B>c d>e d2 | c>B c>d e>g e2 |
A>B A>z A>B A>z | A>B c>d c>d e2 |\
d>c B>A G>=F E>D | E>A c>A A<G A2 ||
%%text Chorus/B
(3EAE A>B c>B A>G | (3DGD G>A B4 | (3EAE A>B c>B A>G | g>f (3edc B4 |
(3EAE A>B c>B A>G | (3AeA e>a e3 A | (3EAE A>B c>B A>G | \
["Back to A" g>f (3edc B3 E1 :| ["final time" g>f (3edc e4 |]
%%text Alternate A part (I'm feeling Fancy)
A>B A>z  A>B A>z | A>B c>B (3cde A2 | \
d>c B>c (3de=f d2 | c>B c>d (3e=fg e2 |
A>B A>z A>B A>z | (3gfe d>B (3cde A2 |\
d>c B>A G>=F E>D | E>A c>A A<G A2 ||

